icons/credit-card-24.svg

<svg xmlns="http://www.w3.org/2000/svg" width="24" height="24" viewBox="0 0 24 24">
  <defs/>
  <path d="M15.25,14 A0.75 0.75 0 0 0 15.25,15.5 L18.75,15.5 A0.75 0.75 0 0 0 18.75,14 L15.25,14 Z"/>
  <path d="M1.75,3 L22.25,3 C23.216,3 24,3.784 24,4.75 L24,19.25 C24,20.216 23.216,21 22.25,21 L1.75,21 C0.784,21 0,20.216 0,19.25 L0,4.75 C0,3.784 0.784,3 1.75,3 Z M1.5,10 L1.5,19.25 C1.5,19.388 1.612,19.5 1.75,19.5 L22.25,19.5 C22.388,19.5 22.5,19.388 22.5,19.25 L22.5,10 Z M1.5,4.75 L1.5,8.5 L22.5,8.5 L22.5,4.75 C22.5,4.612 22.388,4.5 22.25,4.5 L1.75,4.5 C1.612,4.5 1.5,4.612 1.5,4.75 Z"/>
</svg>

<svg xmlns="http://www.w3.org/2000/svg" width="24" height="24" viewBox="0 0 24 24"><path d="M15.25 14a.75.75 0 000 1.5h3.5a.75.75 0 000-1.5h-3.5z"/><path d="M1.75 3h20.5c.966 0 1.75.784 1.75 1.75v14.5A1.75 1.75 0 0122.25 21H1.75A1.75 1.75 0 010 19.25V4.75C0 3.784.784 3 1.75 3zm-.25 7v9.25c0 .138.112.25.25.25h20.5a.25.25 0 00.25-.25V10zm0-5.25V8.5h21V4.75a.25.25 0 00-.25-.25H1.75a.25.25 0 00-.25.25z"/></svg>
